assets/icons/receipt-percent.svg

<svg xmlns="http://www.w3.org/2000/svg" viewBox="0 0 32 32" role="presentation" aria-hidden="true"><path fill-rule="evenodd" clip-rule="evenodd" d="M16.5264 5C14.4307 5 12.3635 5.11629 10.33 5.34258C8.69691 5.52486 7.52637 6.87211 7.52637 8.41213V26.2145C7.5264 26.3429 7.55921 26.4694 7.62193 26.5828C7.68466 26.6962 7.77538 26.7932 7.88615 26.8651C7.99693 26.9371 8.12438 26.9818 8.25736 26.9955C8.39033 27.0092 8.52477 26.9914 8.64891 26.9436L12.4355 25.4895L16.2231 26.9436C16.4178 27.0182 16.6349 27.0182 16.8296 26.9436L20.6173 25.4895L24.4038 26.9436C24.528 26.9914 24.6624 27.0092 24.7954 26.9955C24.9284 26.9818 25.0558 26.9371 25.1666 26.8651C25.2774 26.7932 25.3681 26.6962 25.4308 26.5828C25.4935 26.4694 25.5263 26.3429 25.5264 26.2145V8.41213C25.5264 6.87211 24.3558 5.52486 22.7227 5.34258C20.6659 5.11383 18.597 4.99945 16.5264 5ZM20.3773 12.6267C20.5218 12.4778 20.6005 12.2808 20.5967 12.0772C20.593 11.8737 20.5071 11.6795 20.3572 11.5355C20.2073 11.3915 20.0051 11.3091 19.7931 11.3055C19.5812 11.3019 19.376 11.3775 19.2209 11.5162L12.6755 17.802C12.5951 17.8739 12.5306 17.9607 12.4859 18.0571C12.4412 18.1535 12.4171 18.2575 12.4152 18.363C12.4132 18.4685 12.4334 18.5733 12.4746 18.6711C12.5157 18.769 12.577 18.8578 12.6547 18.9324C12.7324 19.0071 12.8249 19.0659 12.9268 19.1054C13.0287 19.1449 13.1378 19.1643 13.2477 19.1625C13.3575 19.1606 13.4659 19.1375 13.5662 19.0946C13.6666 19.0516 13.7569 18.9897 13.8318 18.9125L20.3773 12.6267ZM12.8445 12.8572C12.8445 12.5446 12.9739 12.2449 13.204 12.0238C13.4342 11.8028 13.7463 11.6786 14.0718 11.6786C14.3973 11.6786 14.7095 11.8028 14.9396 12.0238C15.1698 12.2449 15.2991 12.5446 15.2991 12.8572C15.2991 13.1698 15.1698 13.4696 14.9396 13.6906C14.7095 13.9116 14.3973 14.0358 14.0718 14.0358C13.7463 14.0358 13.4342 13.9116 13.204 13.6906C12.9739 13.4696 12.8445 13.1698 12.8445 12.8572ZM18.9809 16.393C18.6554 16.393 18.3433 16.5171 18.1131 16.7382C17.8829 16.9592 17.7536 17.259 17.7536 17.5715C17.7536 17.8841 17.8829 18.1839 18.1131 18.4049C18.3433 18.6259 18.6554 18.7501 18.9809 18.7501C19.3064 18.7501 19.6186 18.6259 19.8487 18.4049C20.0789 18.1839 20.2082 17.8841 20.2082 17.5715C20.2082 17.259 20.0789 16.9592 19.8487 16.7382C19.6186 16.5171 19.3064 16.393 18.9809 16.393Z" fill="currentColor"/></svg>

<svg xmlns="http://www.w3.org/2000/svg" aria-hidden="true" viewBox="0 0 32 32"><path fill="currentColor" fill-rule="evenodd" d="M16.526 5q-3.144.001-6.196.343c-1.633.182-2.804 1.53-2.804 3.07v17.802a.76.76 0 0 0 .096.368.8.8 0 0 0 .264.282.84.84 0 0 0 .763.079l3.787-1.454 3.787 1.454a.85.85 0 0 0 .607 0l3.787-1.454 3.787 1.454a.85.85 0 0 0 .763-.079.8.8 0 0 0 .264-.282.76.76 0 0 0 .095-.368V8.412c0-1.54-1.17-2.887-2.803-3.07A56 56 0 0 0 16.526 5m3.851 7.627a.77.77 0 0 0 .22-.55.77.77 0 0 0-.24-.541.84.84 0 0 0-.564-.23.84.84 0 0 0-.572.21l-6.546 6.286a.8.8 0 0 0-.26.561.76.76 0 0 0 .24.57.85.85 0 0 0 .912.162q.151-.066.265-.182zm-7.532.23c0-.312.129-.612.359-.833s.542-.345.868-.345.638.124.868.345.36.52.36.833-.13.613-.36.834-.543.345-.868.345c-.326 0-.638-.124-.868-.345s-.36-.521-.36-.834m6.136 3.536c-.326 0-.638.124-.868.345s-.36.521-.36.834.13.612.36.833.542.345.868.345.638-.124.868-.345.36-.52.36-.834c0-.312-.13-.612-.36-.833a1.25 1.25 0 0 0-.868-.345" clip-rule="evenodd"/></svg>
